X:389
L:1/8
M:4/4
K:C
[M:2/2][K:G] .abc (GA) | B2 (BG) A2 (AG) | FGAB cAGF | BGBd cAGF | D2 G2 G2 (GA) | 
 B2 (BG) A2 (AG) | FGAB cAFD | fefd cAGF | D2 G2 G2 :: D2 | GABc d2 g2 | defd cAGF | GABc d2 (ef) | 
 gage d2 (ef) | gage fgfd | efed cdeg |{g} fefd cAGF | D2 G2 G2 :|

